src/actions/symbolic/pointer-mode-drag-symbolic.svg

<svg width="16" height="16" version="1.1" xmlns="http://www.w3.org/2000/svg">
 <path d="m8 0-2.8281 2.8281 0.70703 0.70703 1.6211-1.6211v12.172l-1.6211-1.6211-0.70703 0.70703 2.8281 2.8281 2.8281-2.8281-0.70703-0.70703-1.6211 1.6211v-12.172l1.6211 1.6211 0.70703-0.70703-2.1211-2.1211z" fill="#363636" fill-rule="evenodd" stop-color="#000000" stroke-linecap="round" stroke-linejoin="round" stroke-width="2"/>
 <path d="m16 8-2.8281-2.8281-0.70703 0.70703 1.6211 1.6211h-12.172l1.6211-1.6211-0.70703-0.70703-2.8281 2.8281 2.8281 2.8281 0.70703-0.70703-1.6211-1.6211h12.172l-1.6211 1.6211 0.70703 0.70703 2.1211-2.1211z" fill="#363636" fill-rule="evenodd" stop-color="#000000" stroke-linecap="round" stroke-linejoin="round" stroke-width="2"/>
</svg>

<svg xmlns="http://www.w3.org/2000/svg" width="16" height="16">
    <path fill="#050505" fill-opacity=".7" fill-rule="evenodd" d="M8 0 5.172 2.828l.707.707L7.5 1.914v12.172l-1.621-1.621-.707.707L8 16l2.828-2.828-.707-.707L8.5 14.086V1.914l1.621 1.621.707-.707L8.707.707z"/>
    <path fill="#050505" fill-opacity=".7" fill-rule="evenodd" d="m16 8-2.828-2.828-.707.707L14.086 7.5H1.914l1.621-1.621-.707-.707L0 8l2.828 2.828.707-.707L1.914 8.5h12.172l-1.621 1.621.707.707 2.121-2.121z"/>
</svg>
